!!!OTL: Nach der Wandlung, S. 23f
!!!id: L0017
**kern
*clefG2
*k[f#]
*G:
{8d
8g
=1
2g
4a
8g
8a
=2
2e
4d}
4r
=3
{2g
4d
8g
8a
=4
4b
2a
8r
8f#
=5
[1g
=6
4g]}
2r
=7
{8g
8a
=8
4b
4b
4b
8a
8b
=9
4cc
4b
4a}
4r
=10
{2dd
4cc
4b
=11
2.a
8g
8b
=12
[1a
=13
4a]}
2r
=14
{8g
8a
=15
4b
4b
4b
8a
8b
=16
4cc
4b
4a}
4r
=17
{2dd
4cc
4b
=18
4.a
8g
2cc}
=19
{8b
8a
8g
8b
4.a
8g
=20
2.g}
==
*-
!!!minrhy: 8
!!!meters: 4/4 ]  ZZ[7
!!!cut: Nach der Wandlung, S. 23f
!!!reg: Luxemburg
!!!trd: Die Luxemburger Volkslieder &auml;lterer Zeit, Luxemburg 1904 posth.
!!!rhy1: XX  X__X_XX  X__X_0_
!!!rhy2: X__X_XX  X_X__0X  X___  ^_0__
!!!key: L0017  08  G 4/4 ]  ZZ[7
!!!mod: HEPTATONIK IONISCH]  AMBITUS[8
!!!kad: -5122241
!!!akz: 12-6-5_1-532111_3342_5422222_3342_5424_3211_
!!!fot: 'a__b__c__d__c__dw_e__
!!!for: 'a__b__c__d__c__e__f__
!!!fok: '^__S__^a_\__^a_Vd_\__
!! PHRAS[GEMISCHTTAKTIG]
!!!fkt: geistliches, religiöses Lied
!! FONTAINE, Ed.:
!! PR[33] 2K[11] 2G[11] 3K[6] 3G[0] 4A[0] 4Ü[0] 5A[0] 6K[0] 6G[0]
!! 7K[0] 7G[0] 8A[0] MEHR[0] SI[28] ABS[18] SR[22] SP[6]
!! ST[0] 2k[11] 2g[22] 3k[6] 3g[0] 4d[0] 4ü[0] 5d[0] 6k[0] 6g[0]
!! 7k[0] 7g[0] 8d[0] mehr[0] si[39] dm[-11] sr[33] sp[6]
!! 1F[11] 2F[74] 3F[16] 4F[0] LF[0] 2P[0] 3P[0] 4P[0] TRI[0] DF[3] AB[19]
!! TF[0] U3K[0] U3[0] U4[0] U4Ü[0] U5[0] U6K[0] U6[0] U7K[0] U7[5]
!! N1[5] N2K[0] N2[16] N3K[0] N3[53] N4[16] N4Ü[0] N5[5] N6K[0] N6[0]
!!!n7k: 0] N7[0] O1[0] O2K[0] O2[0] O3K[0] O3[0] HÖ[0
!!!RNB: symbol: &auml;      = a umlaut  (UTF-8: Å„)
